X:3
T:I Got Rhythm
C:George Gershwin
L:1/4
M:C
I:linebreak $
K:F
"F" z C"Dm" z D |"Gm" F2"C7" G2 |"Am" z G"Dm" z F |"Gm" D2"C7" C2 |$"Cm" z C"F7" z D |
"Bb" F2"Eb7" G B/G/ |"Am" A"Ab7" A"Gm" G/A/"Gb7" G |"F" "_Fine" F4 :|$[K:A]"A7" z A2 A | A2 B2 |
"D7" z A2 A | A2 D2 ||$[K:G]"G7" z G2 G | G2 A2 |"C7" z G2 G | G2 "_D.C. al Fine" C2 |]

